icon-svg/double-window-closed.svg

<svg xmlns="http://www.w3.org/2000/svg" fill="#44739e" viewBox="0 0 24 24"><path d="m4.426 2.728.009 1.119v17.279l14.063.793 1.076.081V2Zm1.968 1.045 4.768-.173.069 16.46-4.837-.233Zm-.852 16.436V3.807h.274v16.2l5.417.31v.2zm12.76.7-6.2-.342v-17l.27-.01V20.4l5.937.311zm0-.454-5.352-.242V3.533l5.371-.2z"/></svg>

<?xml version="1.0" encoding="UTF-8"?>
<svg width="24px" fill="#44739e" height="24px" viewBox="0 0 24 24" version="1.1" xmlns="http://www.w3.org/2000/svg" xmlns:xlink="http://www.w3.org/1999/xlink">
            <path d="M 4.426,2.728 4.435,3.847 V 21.126 L 18.498,21.919 19.574,22 V 2 Z M 6.394,3.773 11.162,3.6 11.231,20.06 6.394,19.827 Z M 5.542,20.209 V 3.807 h 0.274 v 16.2 l 5.417,0.31 v 0.2 z m 12.76,0.7 -6.2,-0.342 v -17 l 0.27,-0.01 V 20.4 l 5.937,0.311 z m 0,-0.454 -5.352,-0.242 V 3.533 l 5.371,-0.2 z"/>

</svg>
